liquidity/ui/src/pages/Pools/op.svg

<svg width="66" height="66" viewBox="0 0 66 66" fill="none" xmlns="http://www.w3.org/2000/svg">
    <path
        d="M33 66C51.2254 66 66 51.2254 66 33C66 14.7746 51.2254 0 33 0C14.7746 0 0 14.7746 0 33C0 51.2254 14.7746 66 33 66Z"
        fill="url(#paint0_linear_9588_32938)" />
    <path
        d="M23.934 42.24C21.9436 42.24 20.3129 41.7608 19.0416 40.8027C17.7872 39.8273 17.1599 38.4413 17.1599 36.6447C17.1599 36.2682 17.2018 35.8062 17.2853 35.2587C17.5028 34.0267 17.8123 32.5466 18.2137 30.8183C19.351 26.1128 22.2865 23.76 27.0201 23.76C28.308 23.76 29.462 23.9824 30.4823 24.4274C31.5026 24.8551 32.3055 25.5053 32.8909 26.378C33.4763 27.2336 33.7691 28.2603 33.7691 29.4581C33.7691 29.8174 33.7272 30.2708 33.6435 30.8183C33.3927 32.3412 33.0917 33.8213 32.7404 35.2587C32.155 37.6028 31.1431 39.3567 29.7045 40.5203C28.2661 41.6667 26.3426 42.24 23.934 42.24ZM24.2853 38.544C25.2219 38.544 26.0165 38.2617 26.6688 37.697C27.3378 37.1324 27.8146 36.2682 28.0989 35.1046C28.4835 33.4962 28.7763 32.0932 28.9769 30.8954C29.0439 30.536 29.0773 30.1681 29.0773 29.7916C29.0773 28.2345 28.2829 27.456 26.6939 27.456C25.7572 27.456 24.9544 27.7384 24.2853 28.3031C23.6329 28.8676 23.1646 29.7318 22.8803 30.8954C22.5792 32.0418 22.2781 33.4448 21.9771 35.1046C21.9102 35.4469 21.8767 35.8062 21.8767 36.1827C21.8767 37.7569 22.6795 38.544 24.2853 38.544Z"
        fill="#0B0B22" />
    <path
        d="M34.9211 41.9834C34.7371 41.9834 34.5949 41.9235 34.4945 41.8036C34.4109 41.6667 34.3858 41.5128 34.4192 41.3416L37.8816 24.6584C37.915 24.4702 38.007 24.3161 38.1576 24.1964C38.3081 24.0765 38.467 24.0166 38.6342 24.0166H45.308C47.1646 24.0166 48.6532 24.4102 49.7738 25.1973C50.9113 25.9845 51.4799 27.1223 51.4799 28.611C51.4799 29.0388 51.4298 29.4836 51.3295 29.9456C50.9113 31.9135 50.0666 33.3679 48.7953 34.309C47.5409 35.2501 45.8181 35.7206 43.627 35.7206H40.2399L39.0858 41.3416C39.0524 41.5298 38.9604 41.6839 38.8098 41.8036C38.6593 41.9235 38.5004 41.9834 38.3331 41.9834H34.9211ZM43.8026 32.1787C44.5051 32.1787 45.1156 31.9819 45.6342 31.5884C46.1693 31.1948 46.5206 30.6301 46.688 29.8943C46.7381 29.6035 46.7632 29.3468 46.7632 29.1243C46.7632 28.6282 46.621 28.2517 46.3367 27.9949C46.0522 27.7212 45.5673 27.5843 44.8814 27.5843H41.8707L40.9173 32.1787H43.8026Z"
        fill="#0B0B22" />
    <defs>
        <linearGradient id="paint0_linear_9588_32938" x1="1.8" y1="66" x2="78.7587" y2="43.3494"
            gradientUnits="userSpaceOnUse">
            <stop stop-color="#31D8A4" />
            <stop offset="1" stop-color="#00B0D6" />
        </linearGradient>
    </defs>
</svg>

<svg width="66" height="66" fill="none" viewBox="0 0 66 66" xmlns="http://www.w3.org/2000/svg">
  <path fill="url(#a)" d="M33 66c18.225 0 33-14.775 33-33S51.225 0 33 0 0 14.775 0 33s14.775 33 33 33"/>
  <path fill="#0B0B22" d="M23.934 42.24q-2.985 0-4.892-1.437-1.882-1.464-1.882-4.158 0-.566.125-1.386.327-1.848.929-4.44 1.706-7.059 8.806-7.059 1.932 0 3.462.667 1.53.642 2.409 1.951.878 1.284.878 3.08 0 .54-.125 1.36a59 59 0 0 1-.904 4.44q-.878 3.517-3.036 5.262-2.157 1.72-5.77 1.72m.351-3.696q1.406 0 2.384-.847 1.004-.847 1.43-2.592a64 64 0 0 0 .878-4.21q.1-.539.1-1.103 0-2.337-2.383-2.336-1.406 0-2.409.847-.978.848-1.405 2.592-.45 1.72-.903 4.21-.1.513-.1 1.078 0 2.361 2.408 2.361m10.636 3.439a.53.53 0 0 1-.426-.18.63.63 0 0 1-.076-.461l3.463-16.684a.74.74 0 0 1 .276-.462q.225-.18.476-.18h6.674q2.785 0 4.466 1.181 1.706 1.181 1.706 3.414 0 .642-.15 1.335-.628 2.951-2.535 4.363-1.881 1.412-5.168 1.412H40.24l-1.154 5.62a.74.74 0 0 1-.276.463q-.226.18-.477.18zm8.882-9.804q1.053 0 1.831-.59.803-.591 1.054-1.695.075-.435.075-.77 0-.744-.426-1.13-.427-.41-1.456-.41h-3.01l-.954 4.595z"/>
  <defs>
    <linearGradient id="a" x1="1.8" x2="78.759" y1="66" y2="43.349" gradientUnits="userSpaceOnUse">
      <stop stop-color="#31D8A4"/>
      <stop offset="1" stop-color="#00B0D6"/>
    </linearGradient>
  </defs>
</svg>
